CSETWebApi/CSETWeb_Api/CSETWeb_ApiCore/Diagram/src/main/webapp/img/lib/allied_telesis/buildings/Long_Building.svg

<svg xmlns="http://www.w3.org/2000/svg" viewBox="0 0 208.73 215.073"><style><![CDATA[.J{fill:#fefefe}.K{fill:#d6dee6}]]></style><path d="M1.84 26.193c1.46-.63 2.88-.194 3.977.486L54.657.755C53.422-.028 52.612-.1 51.075.097L1.84 26.193z" fill="#216391"/><path d="M208.73 184.806l-48.84 25.926c.018 1.83-.628 3.252-1.842 4.008l48.84-25.924c1.45-.715 1.843-2.623 1.843-4z" fill="#18547d"/><path d="M54.656.755l148.192 89.043L154 115.722 5.816 26.68z" fill="#276e9f"/><g fill="#19557d"><path d="M159.83 126.236l48.84-25.925.06 84.495-48.84 25.926z"/><path d="M202.85 89.798L154 115.722c3.223 2.066 5.82 6.83 5.82 10.514l48.84-25.924c0-3.902-2.572-8.463-5.82-10.514z"/></g><defs><filter id="A" filterUnits="userSpaceOnUse" x="0" y="25.859" width="159.889" height="189.214"><feColorMatrix values="1 0 0 0 0 0 1 0 0 0 0 0 1 0 0 0 0 0 1 0"/></filter></defs><mask maskUnits="userSpaceOnUse" x="0" y="25.859" width="159.889" height="189.214" id="B"><g filter="url(#A)"><path d="M0 25.86h159.89v189.214H0z" fill="#fff"/></g></mask><path d="M154 115.722c3.197 1.922 5.816 6.65 5.82 10.514l.06 84.496c.004 3.86-2.613 5.445-5.81 3.524L5.887 125.213C2.682 123.288.06 118.558.06 114.696L0 30.2c-.004-3.864 2.614-5.447 5.817-3.522L154 115.722z" mask="url(#B)" fill="#1f608c"/><path d="M95.582 129.974l-8.69-5.223v-12.853l8.69 5.222v12.854zm0 19.13l-8.69-5.22v-12.85l8.69 5.22v12.852zm0 18.736l-8.69-5.22v-12.852l8.69 5.22v12.85zm-11.64-44.86l-8.693-5.22v-12.855l8.693 5.224v12.852zm0 19.13l-8.693-5.223v-12.85l8.693 5.222v12.852zm-19.677-11.824v-12.852l8.695 5.225v12.853l-8.695-5.226zm-3.006-20.936l-8.694-5.223V91.273l8.694 5.222v12.854zm0 19.13l-8.694-5.225v-12.85l8.694 5.224v12.852zm-.34 18.533l-8.69-5.223v-12.853l8.69 5.223v12.853zm3.346-48.71l8.695 5.225v12.853l-8.695-5.224V98.302zm1.125 58.62V137.6l7.283 4.377v19.32l-7.283-4.375zm9.263 5.567v-19.323l7.07 4.248v19.323l-7.07-4.248z" class="J"/><path d="M88.186 113.962l6.668 4.02-.016 8.242s-.406-4.832-3.24-8.532c-2.602-3.4-3.412-3.73-3.412-3.73m-34.42-20.748l6.666 4.018-.016 8.242s-.406-4.83-3.242-8.53c-2.598-3.392-3.408-3.73-3.408-3.73m34.39 39.736l6.668 4.02-.016 8.246s-.404-4.832-3.24-8.532c-2.6-3.395-3.412-3.734-3.412-3.734m-11.6-26l6.668 4.018-.016 8.242s-.406-4.83-3.238-8.528c-2.602-3.393-3.414-3.732-3.414-3.732m-.03 19l6.666 4.02-.016 8.246s-.404-4.832-3.238-8.532c-2.6-3.394-3.412-3.734-3.412-3.734m-10.94-25.603l6.67 4.02-.016 8.242s-.4-4.832-3.244-8.532c-2.6-3.4-3.4-3.73-3.4-3.73m-.042 18.99l6.67 4.02-.016 8.246s-.408-4.832-3.242-8.534c-2.6-3.393-3.412-3.732-3.412-3.732m-11.814-7.123l6.666 4.02-.016 8.246s-.406-4.832-3.242-8.534c-2.6-3.393-3.408-3.732-3.408-3.732m34.39 39.69l6.668 4.02-.016 8.246s-.404-4.832-3.24-8.532c-2.6-3.4-3.412-3.734-3.412-3.734m-34.63-20.874l6.666 4.018-.016 8.244s-.408-4.832-3.238-8.53c-2.6-3.392-3.412-3.732-3.412-3.732" class="K"/><path d="M141.455 158.66l-8.69-5.22v-12.854l8.69 5.22v12.855zm0 19.13l-8.69-5.223v-12.85l8.69 5.222V177.8zm0 18.737l-8.69-5.22v-12.853l8.69 5.223v12.85zm-11.64-44.862l-8.69-5.223V133.59l8.69 5.222v12.854zm0 19.13l-8.69-5.225v-12.85l8.69 5.224v12.852zM110.14 158.97v-12.85l8.695 5.225v12.85l-8.695-5.225zm-3.006-20.934l-8.694-5.225V119.96l8.694 5.224v12.854zm0 19.128l-8.694-5.223v-12.85l8.694 5.222v12.852zm-.34 18.534l-8.692-5.223v-12.85l8.692 5.222V175.7zm3.346-48.712l8.695 5.225v12.855l-8.695-5.224v-12.856z" class="J"/><path d="M134.06 142.65l6.666 4.018-.016 8.242s-.404-4.83-3.24-8.53c-2.6-3.4-3.4-3.73-3.4-3.73m-34.43-20.748l6.666 4.018-.016 8.24s-.406-4.83-3.242-8.53c-2.6-3.4-3.408-3.73-3.408-3.73m34.4 39.738l6.668 4.018-.018 8.248s-.402-4.832-3.238-8.532c-2.6-3.394-3.412-3.734-3.412-3.734m-11.602-26.002l6.666 4.02-.016 8.24s-.404-4.828-3.238-8.528c-2.6-3.392-3.412-3.732-3.412-3.732m-.03 19l6.666 4.018-.016 8.248s-.406-4.834-3.238-8.532c-2.6-3.394-3.412-3.734-3.412-3.734m-10.94-25.603l6.67 4.02-.018 8.24s-.408-4.83-3.242-8.53c-2.6-3.392-3.4-3.732-3.4-3.732m-.04 18.99l6.67 4.02-.016 8.247s-.408-4.834-3.242-8.534c-2.6-3.394-3.412-3.734-3.412-3.734M99.6 140.9l6.664 4.018-.016 8.248s-.406-4.834-3.24-8.536c-2.6-3.392-3.408-3.73-3.408-3.73m34.4 39.68l6.668 4.02-.016 8.244s-.406-4.832-3.24-8.532c-2.6-3.4-3.412-3.732-3.412-3.732m-34.63-20.874l6.666 4.02-.018 8.244s-.406-4.832-3.236-8.532c-2.603-3.4-3.412-3.732-3.412-3.732" class="K"/><path d="M49.332 103.37l-8.69-5.222V85.296l8.69 5.22v12.854zm0 19.13l-8.69-5.222v-12.85l8.69 5.22V122.5zm0 18.736l-8.69-5.22v-12.853l8.69 5.222v12.85zm-11.64-44.86L29 91.154V78.3l8.69 5.223v12.853zm0 19.13L29 110.283v-12.85l8.69 5.223v12.852zm-19.675-11.824V90.83l8.695 5.225v12.852l-8.695-5.225zM15 82.747l-8.694-5.224V64.67L15 69.893v12.854zm0 19.13l-8.694-5.224v-12.85L15 89.025v12.852zm-.34 18.533l-8.692-5.223v-12.852l8.692 5.223V120.4zm3.346-48.71l8.695 5.225v12.854l-8.695-5.224V71.7z" class="J"/><path d="M41.937 87.36l6.666 4.02-.016 8.242s-.404-4.83-3.24-8.53c-2.6-3.4-3.4-3.73-3.4-3.73m-34.43-20.75l6.666 4.018-.016 8.24s-.406-4.83-3.242-8.53c-2.6-3.4-3.408-3.73-3.408-3.73m34.39 39.74l6.668 4.02-.018 8.247s-.402-4.832-3.238-8.532c-2.6-3.394-3.412-3.734-3.412-3.734m-11.6-26.003l6.666 4.02-.016 8.24s-.404-4.83-3.238-8.528c-2.6-3.392-3.412-3.732-3.412-3.732m-.03 18.99l6.666 4.02-.016 8.247s-.406-4.833-3.238-8.532c-2.6-3.394-3.412-3.734-3.412-3.734m-10.94-25.603l6.67 4.02-.018 8.24s-.408-4.83-3.242-8.53c-2.6-3.4-3.4-3.73-3.4-3.73m-.04 18.988l6.67 4.02-.016 8.246s-.408-4.833-3.242-8.534c-2.6-3.393-3.412-3.733-3.412-3.733M7.488 85.6l6.664 4.02-.016 8.247s-.406-4.833-3.24-8.535c-2.6-3.392-3.408-3.73-3.408-3.73m34.39 39.7l6.668 4.02-.016 8.245s-.406-4.832-3.24-8.532c-2.6-3.4-3.412-3.733-3.412-3.733m-34.63-20.874l6.666 4.02-.018 8.244s-.406-4.832-3.236-8.53c-2.603-3.4-3.412-3.732-3.412-3.732" class="K"/><path d="M153.484 202.308l-8.7-5.22v-12.85l8.7 5.22zm0-18.736l-8.7-5.22V165.5l8.7 5.22zm0-19.13l-8.7-5.223v-12.853l8.7 5.222z" class="J"/><path d="M146.1 148.43l6.666 4.02-.016 8.242s-.404-4.832-3.24-8.532c-2.6-3.4-3.4-3.73-3.4-3.73m-.05 19l6.668 4.02-.018 8.246s-.402-4.832-3.238-8.532c-2.6-3.394-3.412-3.734-3.412-3.734m-.03 18.943l6.668 4.02-.016 8.246s-.406-4.832-3.24-8.532c-2.6-3.4-3.412-3.734-3.412-3.734" class="K"/><path d="M109.87 163.492l8.7 5.224v12.852l-8.7-5.222m20.333 12.218l-8.7-5.222V170.5l8.7 5.22z" class="J"/><path d="M129.46 184.814s-.404-4.83-3.24-8.53c-2.6-3.4-3.4-3.73-3.4-3.73l6.666 4.02-.016 8.242m-18.294-19.276l6.666 4.02-.016 8.24s-.404-4.83-3.238-8.528c-2.6-3.392-3.412-3.732-3.412-3.732" class="K"/><path d="M17.664 108.804l8.693 5.225v12.85l-8.693-5.22m20.334 12.217l-8.7-5.223V115.8l8.7 5.222z" class="J"/><path d="M37.254 130.126s-.406-4.832-3.24-8.53c-2.602-3.4-3.412-3.73-3.412-3.73l6.668 4.02-.016 8.242M18.97 110.853l6.668 4.018-.016 8.242s-.406-4.83-3.238-8.528c-2.602-3.392-3.414-3.732-3.414-3.732" class="K"/><path d="M50.71 82.384l-8.69-5.22v-12.85l8.69 5.22v12.852zM39.068 75.4l-8.693-5.223v-12.85l8.693 5.222V75.4zM19.39 63.566V50.714l8.695 5.225v12.853l-8.695-5.226zm-3.006-1.805L7.69 56.536v-12.85l8.694 5.224V61.76z" class="J"/><path d="M43.28 66.232l6.668 4.02-.016 8.246s-.404-4.832-3.24-8.532c-2.6-3.394-3.412-3.734-3.412-3.734M31.65 59.22l6.666 4.02-.016 8.246s-.404-4.832-3.238-8.532c-2.6-3.394-3.412-3.734-3.412-3.734m-10.972-6.613l6.67 4.02-.016 8.246s-.408-4.832-3.242-8.534c-2.6-3.392-3.412-3.732-3.412-3.732M8.863 45.484l6.666 4.02-.016 8.246s-.406-4.832-3.242-8.534c-2.6-3.392-3.408-3.732-3.408-3.732" class="K"/><path d="M96.965 110.394l-8.69-5.222V92.32l8.69 5.22v12.852zm-11.64-6.994l-8.69-5.224v-12.85l8.69 5.223V103.4zM65.65 91.576V78.724l8.695 5.225V96.8l-8.695-5.225zm-3.006-1.806l-8.694-5.224v-12.85l8.694 5.223V89.77z" class="J"/><path d="M89.54 94.242l6.668 4.02-.018 8.247s-.402-4.832-3.238-8.532c-2.6-3.395-3.412-3.734-3.412-3.734M77.908 87.23l6.666 4.02-.016 8.247s-.406-4.833-3.238-8.532c-2.6-3.394-3.412-3.734-3.412-3.734m-10.972-6.615l6.67 4.02-.016 8.246s-.408-4.833-3.242-8.534c-2.602-3.393-3.412-3.733-3.412-3.733m-11.816-7.12l6.664 4.02-.016 8.247s-.406-4.833-3.24-8.535c-2.6-3.393-3.408-3.73-3.408-3.73" class="K"/><path d="M142.375 137.554l-8.69-5.223v-12.85l8.69 5.222v12.852zm-11.64-6.994l-8.693-5.225v-12.85l8.693 5.224v12.852zm-19.677-11.824v-12.852l8.695 5.225v12.85l-8.695-5.224zm-3.006-1.807l-8.694-5.223v-12.85l8.694 5.222v12.852z" class="J"/><path d="M134.947 121.402l6.668 4.018-.016 8.248s-.404-4.832-3.24-8.532c-2.6-3.394-3.412-3.734-3.412-3.734m-11.63-7.002l6.666 4.018-.016 8.248s-.404-4.834-3.238-8.532c-2.6-3.394-3.412-3.734-3.412-3.734m-10.972-6.625l6.67 4.02-.016 8.247s-.408-4.834-3.242-8.534c-2.6-3.394-3.412-3.734-3.412-3.734m-11.814-7.12l6.666 4.018-.016 8.248s-.406-4.834-3.242-8.536c-2.6-3.392-3.408-3.73-3.408-3.73" class="K"/><path d="M153.883 144.09l-8.693-5.223v-12.85l8.693 5.222z" class="J"/><path d="M146.36 127.814l6.666 4.018-.016 8.248s-.406-4.834-3.242-8.536c-2.6-3.392-3.408-3.73-3.408-3.73" class="K"/></svg>

<?xml version="1.0" encoding="utf-8"?>
<svg version="1.1"
	 id="Layer_1" inkscape:version="0.92.3 (2405546, 2018-03-11)" sodipodi:docname="Long_Building4.svg" xmlns:cc="http://creativecommons.org/ns#" xmlns:dc="http://purl.org/dc/elements/1.1/" xmlns:inkscape="http://www.inkscape.org/namespaces/inkscape" xmlns:rdf="http://www.w3.org/1999/02/22-rdf-syntax-ns#" xmlns:sodipodi="http://sodipodi.sourceforge.net/DTD/sodipodi-0.dtd" xmlns:svg="http://www.w3.org/2000/svg"
	 xmlns="http://www.w3.org/2000/svg" xmlns:xlink="http://www.w3.org/1999/xlink" x="0px" y="0px" viewBox="0 0 208.73 215.073"
	 style="enable-background:new 0 0 208.73 215.073;" xml:space="preserve">
<style type="text/css">
	.st0{fill:#216391;}
	.st1{fill:#18547D;}
	.st2{fill:#276E9F;}
	.st3{fill:#19557D;}
	.st4{filter:url(#Adobe_OpacityMaskFilter);}
	.st5{fill:#FFFFFF;}
	.st6{mask:url(#mask-98_2_);fill:#1F608C;}
	.st7{fill:#FEFEFE;}
	.st8{fill:#D6DEE6;}
</style>
<sodipodi:namedview  bordercolor="#666666" borderopacity="1" gridtolerance="10" guidetolerance="10" id="namedview133" inkscape:current-layer="Layer_1" inkscape:cx="123.13008" inkscape:cy="81.349642" inkscape:pageopacity="0" inkscape:pageshadow="2" inkscape:window-height="1017" inkscape:window-maximized="1" inkscape:window-width="1920" inkscape:window-x="-8" inkscape:window-y="-8" inkscape:zoom="5.6568543" objecttolerance="10" pagecolor="#ffffff" showgrid="false">
	</sodipodi:namedview>
<title  id="title4">icon-long-building</title>
<desc  id="desc6">Created with Sketch.</desc>
<g id="g22">
	<path id="path8" inkscape:connector-curvature="0" sodipodi:nodetypes="ccccc" class="st0" d="M1.84,26.193
		c1.46-0.631,2.88-0.194,3.977,0.486l48.84-25.924c-1.235-0.783-2.045-0.865-3.582-0.658L1.84,26.193z"/>
</g>
<g id="g38">
	<path id="path34" inkscape:connector-curvature="0" sodipodi:nodetypes="ccccc" class="st1" d="M208.73,184.806l-48.841,25.926
		c0.018,1.83-0.628,3.252-1.842,4.008l48.84-25.924C208.338,188.101,208.73,186.193,208.73,184.806z"/>
</g>
<polygon id="Fill-98" class="st2" points="54.656,0.755 202.848,89.798 154.01,115.722 5.816,26.679 "/>
<polygon id="Fill-100" class="st3" points="159.83,126.236 208.669,100.311 208.729,184.806 159.889,210.732 "/>
<g id="g56">
	<path id="path42" inkscape:connector-curvature="0" sodipodi:nodetypes="ccccc" class="st3" d="M202.85,89.798l-48.84,25.924
		c3.223,2.066,5.82,6.829,5.82,10.514l48.84-25.924C208.67,96.41,206.098,91.849,202.85,89.798z"/>
</g>
<defs>
	<filter id="Adobe_OpacityMaskFilter" filterUnits="userSpaceOnUse" x="0" y="25.859" width="159.889" height="189.214">
		<feColorMatrix  type="matrix" values="1 0 0 0 0  0 1 0 0 0  0 0 1 0 0  0 0 0 1 0"/>
	</filter>
</defs>
<mask maskUnits="userSpaceOnUse" x="0" y="25.859" width="159.889" height="189.214" id="mask-98_2_">
	<g id="g64_1_" class="st4">
		<polygon id="path-97_2_" class="st5" points="0,25.859 159.889,25.859 159.889,215.073 0,215.073 		"/>
	</g>
</mask>
<path id="Fill-209" class="st6" d="M154.01,115.722c3.197,1.922,5.816,6.651,5.82,10.514l0.059,84.496
	c0.004,3.861-2.613,5.445-5.811,3.524L5.887,125.213c-3.205-1.925-5.826-6.655-5.828-10.517L0,30.201
	c-0.004-3.864,2.614-5.447,5.817-3.522L154.01,115.722z"/>
<path id="Fill-212" class="st7" d="M95.582,129.974l-8.691-5.223v-12.853l8.691,5.222V129.974z M95.582,149.103l-8.691-5.221
	v-12.851l8.691,5.22V149.103z M95.582,167.839l-8.691-5.22v-12.852l8.691,5.221V167.839z M83.941,122.978l-8.693-5.221v-12.855
	l8.693,5.224V122.978z M83.941,142.109l-8.693-5.223v-12.851l8.693,5.222V142.109z M64.264,130.285v-12.852l8.695,5.225v12.853
	L64.264,130.285z M61.258,109.349l-8.694-5.223V91.273l8.694,5.222V109.349z M61.258,128.48l-8.694-5.225v-12.851l8.694,5.224
	V128.48z M60.918,147.013l-8.691-5.223v-12.853l8.691,5.223V147.013z M64.264,98.302l8.695,5.225v12.853l-8.695-5.224V98.302z
	 M65.389,156.923v-19.322l7.283,4.377v19.32L65.389,156.923z M74.652,162.49v-19.323l7.071,4.248v19.323L74.652,162.49z"/>
<path id="Fill-214" class="st8" d="M88.186,113.962l6.668,4.02l-0.016,8.242c0,0-0.406-4.832-3.24-8.532
	C88.996,114.302,88.186,113.962,88.186,113.962"/>
<path id="Fill-216" class="st8" d="M53.765,93.214l6.666,4.018l-0.016,8.242c0,0-0.406-4.83-3.242-8.53
	C54.575,93.552,53.765,93.214,53.765,93.214"/>
<path id="Fill-218" class="st8" d="M88.154,132.951l6.668,4.02l-0.016,8.246c0,0-0.404-4.832-3.24-8.532
	C88.966,133.29,88.154,132.951,88.154,132.951"/>
<path id="Fill-220" class="st8" d="M76.553,106.951l6.668,4.018l-0.016,8.242c0,0-0.406-4.83-3.238-8.528
	C77.365,107.29,76.553,106.951,76.553,106.951"/>
<path id="Fill-222" class="st8" d="M76.523,125.939l6.666,4.02l-0.016,8.246c0,0-0.404-4.832-3.238-8.532
	C77.334,126.279,76.523,125.939,76.523,125.939"/>
<path id="Fill-224" class="st8" d="M65.582,100.337l6.67,4.02l-0.016,8.242c0,0-0.41-4.832-3.244-8.532
	C66.391,100.677,65.582,100.337,65.582,100.337"/>
<path id="Fill-226" class="st8" d="M65.551,119.326l6.67,4.02l-0.016,8.246c0,0-0.408-4.832-3.242-8.534
	C66.362,119.665,65.551,119.326,65.551,119.326"/>
<path id="Fill-228" class="st8" d="M53.736,112.203l6.666,4.02l-0.016,8.246c0,0-0.406-4.832-3.242-8.534
	C54.545,112.542,53.736,112.203,53.736,112.203"/>
<path id="Fill-230" class="st8" d="M88.125,151.894l6.668,4.02l-0.016,8.246c0,0-0.404-4.832-3.24-8.532
	C88.937,152.238,88.125,151.894,88.125,151.894"/>
<path id="Fill-232" class="st8" d="M53.496,131.021l6.666,4.018l-0.016,8.244c0,0-0.408-4.832-3.238-8.53
	C54.307,131.361,53.496,131.021,53.496,131.021"/>
<path id="Fill-234" class="st7" d="M141.455,158.66l-8.689-5.221v-12.854l8.689,5.22V158.66z M141.455,177.79l-8.689-5.223v-12.851
	l8.689,5.222V177.79z M141.455,196.527l-8.689-5.221v-12.853l8.689,5.223V196.527z M129.814,151.665l-8.691-5.223v-12.853
	l8.691,5.222V151.665z M129.814,170.796l-8.691-5.225V152.72l8.691,5.224V170.796z M110.139,158.971V146.12l8.695,5.225v12.851
	L110.139,158.971z M107.133,138.037l-8.694-5.225v-12.853l8.694,5.224V138.037z M107.133,157.165l-8.694-5.223v-12.851l8.694,5.222
	V157.165z M106.793,175.699l-8.692-5.223v-12.851l8.692,5.222V175.699z M110.139,126.987l8.695,5.225v12.855l-8.695-5.224V126.987z"
	/>
<path id="Fill-236" class="st8" d="M134.061,142.65l6.666,4.018l-0.016,8.242c0,0-0.404-4.83-3.24-8.53
	C134.872,142.99,134.061,142.65,134.061,142.65"/>
<path id="Fill-238" class="st8" d="M99.641,121.902l6.666,4.018l-0.016,8.24c0,0-0.406-4.83-3.242-8.529
	C100.45,122.24,99.641,121.902,99.641,121.902"/>
<path id="Fill-240" class="st8" d="M134.029,161.638l6.668,4.018l-0.018,8.248c0,0-0.402-4.832-3.238-8.532
	C134.841,161.978,134.029,161.638,134.029,161.638"/>
<path id="Fill-242" class="st8" d="M122.428,135.636l6.666,4.02l-0.016,8.24c0,0-0.404-4.828-3.238-8.528
	C123.239,135.976,122.428,135.636,122.428,135.636"/>
<path id="Fill-244" class="st8" d="M122.398,154.626l6.666,4.018l-0.016,8.248c0,0-0.406-4.834-3.238-8.532
	C123.209,154.966,122.398,154.626,122.398,154.626"/>
<path id="Fill-246" class="st8" d="M111.457,129.023l6.67,4.021l-0.018,8.241c0,0-0.408-4.83-3.242-8.53
	C112.266,129.363,111.457,129.023,111.457,129.023"/>
<path id="Fill-248" class="st8" d="M111.426,148.011l6.67,4.021l-0.016,8.247c0,0-0.408-4.834-3.242-8.534
	C112.237,148.351,111.426,148.011,111.426,148.011"/>
<path id="Fill-250" class="st8" d="M99.611,140.89l6.664,4.018l-0.016,8.248c0,0-0.406-4.834-3.24-8.536
	C100.42,141.228,99.611,140.89,99.611,140.89"/>
<path id="Fill-252" class="st8" d="M134,180.581l6.668,4.02l-0.016,8.244c0,0-0.406-4.832-3.24-8.532
	C134.811,180.923,134,180.581,134,180.581"/>
<path id="Fill-254" class="st8" d="M99.371,159.706l6.666,4.02l-0.018,8.244c0,0-0.406-4.832-3.236-8.532
	C100.18,160.048,99.371,159.706,99.371,159.706"/>
<path id="Fill-256" class="st7" d="M49.332,103.371l-8.689-5.222V85.296l8.689,5.221V103.371z M49.332,122.501l-8.689-5.222v-12.851
	l8.689,5.221V122.501z M49.332,141.237l-8.689-5.22v-12.853l8.689,5.222V141.237z M37.691,96.376L29,91.154V78.3l8.691,5.223V96.376
	z M37.691,115.507L29,110.283V97.432l8.691,5.223V115.507z M18.016,103.683V90.831l8.695,5.225v12.852L18.016,103.683z
	 M15.01,82.747l-8.694-5.224V64.67l8.694,5.223V82.747z M15.01,101.877l-8.694-5.224V83.802l8.694,5.223V101.877z M14.67,120.41
	l-8.692-5.223v-12.852l8.692,5.223V120.41z M18.016,71.699l8.695,5.225v12.854l-8.695-5.224V71.699z"/>
<path id="Fill-258" class="st8" d="M41.937,87.361l6.666,4.019l-0.016,8.242c0,0-0.404-4.831-3.24-8.531
	C42.748,87.701,41.937,87.361,41.937,87.361"/>
<path id="Fill-260" class="st8" d="M7.517,66.613l6.666,4.018l-0.016,8.241c0,0-0.406-4.83-3.242-8.53
	C8.326,66.951,7.517,66.613,7.517,66.613"/>
<path id="Fill-262" class="st8" d="M41.906,106.349l6.668,4.019l-0.018,8.247c0,0-0.402-4.832-3.238-8.532
	C42.718,106.689,41.906,106.349,41.906,106.349"/>
<path id="Fill-264" class="st8" d="M30.305,80.348l6.666,4.019l-0.016,8.241c0,0-0.404-4.829-3.238-8.528
	C31.116,80.688,30.305,80.348,30.305,80.348"/>
<path id="Fill-266" class="st8" d="M30.275,99.337l6.666,4.019l-0.016,8.247c0,0-0.406-4.833-3.238-8.532
	C31.086,99.677,30.275,99.337,30.275,99.337"/>
<path id="Fill-268" class="st8" d="M19.334,73.735l6.67,4.021l-0.018,8.241c0,0-0.408-4.831-3.242-8.531
	C20.143,74.075,19.334,73.735,19.334,73.735"/>
<path id="Fill-270" class="st8" d="M19.303,92.723l6.67,4.021l-0.016,8.246c0,0-0.408-4.833-3.242-8.534
	C20.114,93.063,19.303,92.723,19.303,92.723"/>
<path id="Fill-272" class="st8" d="M7.488,85.601l6.664,4.019l-0.016,8.247c0,0-0.406-4.833-3.24-8.535
	C8.297,85.94,7.488,85.601,7.488,85.601"/>
<path id="Fill-274" class="st8" d="M41.877,125.292l6.668,4.02l-0.016,8.245c0,0-0.406-4.832-3.24-8.532
	C42.688,125.635,41.877,125.292,41.877,125.292"/>
<path id="Fill-276" class="st8" d="M7.248,104.418l6.666,4.019l-0.018,8.244c0,0-0.406-4.832-3.236-8.531
	C8.057,104.759,7.248,104.418,7.248,104.418"/>
<polygon id="Fill-278" class="st7" points="153.484,202.308 144.795,197.087 144.795,184.236 153.484,189.456 "/>
<polygon id="Fill-280" class="st7" points="153.484,183.572 144.795,178.351 144.795,165.5 153.484,170.72 "/>
<polygon id="Fill-282" class="st7" points="153.484,164.443 144.795,159.22 144.795,146.367 153.484,151.589 "/>
<path id="Fill-284" class="st8" d="M146.09,148.431l6.666,4.02l-0.016,8.242c0,0-0.404-4.832-3.24-8.532
	C146.901,148.771,146.09,148.431,146.09,148.431"/>
<path id="Fill-286" class="st8" d="M146.059,167.419l6.668,4.02l-0.018,8.246c0,0-0.402-4.832-3.238-8.532
	C146.87,167.759,146.059,167.419,146.059,167.419"/>
<path id="Fill-288" class="st8" d="M146.029,186.363l6.668,4.02l-0.016,8.246c0,0-0.406-4.832-3.24-8.532
	C146.84,186.707,146.029,186.363,146.029,186.363"/>
<polyline id="Fill-290" class="st7" points="109.871,163.492 118.562,168.716 118.562,181.568 109.871,176.346 "/>
<polygon id="Fill-292" class="st7" points="130.203,188.564 121.514,183.342 121.514,170.489 130.203,175.71 "/>
<path id="Fill-294" class="st8" d="M129.459,184.814c0,0-0.404-4.831-3.24-8.53c-2.6-3.391-3.41-3.731-3.41-3.731l6.666,4.019
	L129.459,184.814"/>
<path id="Fill-296" class="st8" d="M111.176,165.54l6.666,4.019l-0.016,8.241c0,0-0.404-4.829-3.238-8.528
	C111.987,165.88,111.176,165.54,111.176,165.54"/>
<polyline id="Fill-298" class="st7" points="17.664,108.804 26.357,114.029 26.357,126.88 17.664,121.659 "/>
<polygon id="Fill-300" class="st7" points="37.998,133.876 29.307,128.653 29.307,115.8 37.998,121.022 "/>
<path id="Fill-302" class="st8" d="M37.254,130.126c0,0-0.406-4.832-3.24-8.531c-2.602-3.391-3.412-3.731-3.412-3.731l6.668,4.02
	L37.254,130.126"/>
<path id="Fill-304" class="st8" d="M18.969,110.853l6.668,4.018l-0.016,8.242c0,0-0.406-4.83-3.238-8.528
	C19.781,111.193,18.969,110.853,18.969,110.853"/>
<path id="Fill-306" class="st7" d="M50.709,82.384l-8.691-5.221V64.312l8.691,5.22V82.384z M39.068,75.39l-8.693-5.223V57.316
	l8.693,5.222V75.39z M19.391,63.566V50.714l8.695,5.225v12.853L19.391,63.566z M16.385,61.761l-8.694-5.225V43.685l8.694,5.224
	V61.761z"/>
<path id="Fill-308" class="st8" d="M43.281,66.232l6.668,4.02l-0.016,8.246c0,0-0.404-4.832-3.24-8.532
	C44.093,66.572,43.281,66.232,43.281,66.232"/>
<path id="Fill-310" class="st8" d="M31.65,59.22l6.666,4.02L38.3,71.486c0,0-0.404-4.832-3.238-8.532
	C32.461,59.56,31.65,59.22,31.65,59.22"/>
<path id="Fill-312" class="st8" d="M20.678,52.607l6.67,4.02l-0.016,8.246c0,0-0.408-4.832-3.242-8.534
	C21.489,52.947,20.678,52.607,20.678,52.607"/>
<path id="Fill-314" class="st8" d="M8.863,45.484l6.666,4.02l-0.016,8.246c0,0-0.406-4.832-3.242-8.534
	C9.672,45.824,8.863,45.484,8.863,45.484"/>
<path id="Fill-316" class="st7" d="M96.965,110.394l-8.689-5.222V92.321l8.689,5.221V110.394z M85.324,103.4l-8.691-5.224V85.325
	l8.691,5.223V103.4z M65.649,91.576V78.724l8.695,5.225v12.852L65.649,91.576z M62.643,89.77l-8.694-5.224V71.695l8.694,5.223V89.77
	z"/>
<path id="Fill-318" class="st8" d="M89.539,94.242l6.668,4.019l-0.018,8.247c0,0-0.402-4.832-3.238-8.532
	C90.351,94.581,89.539,94.242,89.539,94.242"/>
<path id="Fill-320" class="st8" d="M77.908,87.23l6.666,4.019l-0.016,8.247c0,0-0.406-4.833-3.238-8.532
	C78.719,87.57,77.908,87.23,77.908,87.23"/>
<path id="Fill-322" class="st8" d="M66.936,80.616l6.67,4.021l-0.016,8.246c0,0-0.408-4.833-3.242-8.534
	C67.746,80.956,66.936,80.616,66.936,80.616"/>
<path id="Fill-324" class="st8" d="M55.121,73.494l6.664,4.019l-0.016,8.247c0,0-0.406-4.833-3.24-8.535
	C55.93,73.832,55.121,73.494,55.121,73.494"/>
<path id="Fill-326" class="st7" d="M142.375,137.554l-8.691-5.223V119.48l8.691,5.222V137.554z M130.734,130.56l-8.693-5.225
	v-12.851l8.693,5.224V130.56z M111.057,118.736v-12.852l8.695,5.225v12.851L111.057,118.736z M108.051,116.929l-8.694-5.223V98.855
	l8.694,5.222V116.929z"/>
<path id="Fill-328" class="st8" d="M134.947,121.402l6.668,4.018l-0.016,8.248c0,0-0.404-4.832-3.24-8.532
	C135.759,121.742,134.947,121.402,134.947,121.402"/>
<path id="Fill-330" class="st8" d="M123.316,114.39l6.666,4.018l-0.016,8.248c0,0-0.404-4.834-3.238-8.532
	C124.127,114.73,123.316,114.39,123.316,114.39"/>
<path id="Fill-332" class="st8" d="M112.344,107.775l6.67,4.021l-0.016,8.247c0,0-0.408-4.834-3.242-8.534
	C113.155,108.115,112.344,107.775,112.344,107.775"/>
<path id="Fill-334" class="st8" d="M100.529,100.654l6.666,4.018l-0.016,8.248c0,0-0.406-4.834-3.242-8.536
	C101.338,100.992,100.529,100.654,100.529,100.654"/>
<polygon id="Fill-336" class="st7" points="153.883,144.089 145.19,138.866 145.19,126.015 153.883,131.237 "/>
<path id="Fill-338" class="st8" d="M146.361,127.814l6.666,4.018l-0.016,8.248c0,0-0.406-4.834-3.242-8.536
	C147.17,128.152,146.361,127.814,146.361,127.814"/>
</svg>
